X: 10389
T: Donald Blue
R: reel
M: 4/4
K: Dmajor
|dBAF A3B|dBAF E2D2|dBAF A2FA|BcBB AFA:|
ABde f3d|g3e fedB|ABde fded|B2dB BAFA:|

